assets/images/vip/vip-diamond.svg

<svg enable-background="new 0 0 84 84" viewBox="0 0 84 84" xmlns="http://www.w3.org/2000/svg"><g fill="#fff"><path d="m33.2 59.4c-4.2-8.9-8-17.1-8.3-18.2-.6-1.9-.1-2 17.2-2s17.7.1 17.2 2c-1.6 4.7-16.4 34.4-17.3 34.4-.6 0-4.5-7.3-8.8-16.2z"/><path d="m19.8 53.3c-17.3-20.9-17.3-20.9-16.6-21.6.3-.3 4.4 1.1 9.2 3.1l8.6 3.6 7.1 14.9c3.9 8.1 7.1 15.1 7.1 15.6-.1 2.2-2.9-.7-15.4-15.6z"/><path d="m48.9 68.8c0-.6 3.2-7.7 7.3-15.6l7.3-14.5 8.4-3.7c4.7-2.2 8.7-3.5 9.1-3.2.6.7-.5 2.1-18.2 23.3-11.8 13.7-13.9 15.9-13.9 13.7z"/><path d="m24 33.2c.3-1.8 1.2-5 1.8-7.2l1.2-3.9h15 15.1l1.2 3.9c.6 2.2 1.5 5.4 1.8 7.2l.8 3.1h-18.9-18.8z"/><path d="m9.4 31.1-8.7-3.9 5.1-5.2 5-5.1 6.5 2.1c3.6 1.2 6.8 2.2 7 2.4.2.1-.4 3.3-1.4 7.2-1.3 5.1-2.1 6.9-3.3 6.8-.9-.1-5.5-2-10.2-4.3z"/><path d="m61.1 28.5c-1-3.8-1.6-7.1-1.4-7.3s3.3-1.2 6.9-2.3l6.4-2 5.3 4.7c2.9 2.6 5 5 4.7 5.4-1.1 1-17.6 8.2-19 8.2-.6.1-2-3-2.9-6.7z"/><path d="m20.5 17.8c-2.9-.9-5.5-2.1-5.7-2.6-.2-.6 2.1-1.8 4.9-2.6 7.5-2.4 37-2.4 44.5 0 2.8.9 5.1 2.1 4.9 2.6-.1.5-2.9 1.8-6.1 2.7-8 2.3-34.4 2.4-42.5-.1z"/></g></svg>

<?xml version="1.0" encoding="utf-8"?>
<!-- Generator: Adobe Illustrator 24.1.1, SVG Export Plug-In . SVG Version: 6.00 Build 0)  -->
<svg version="1.1" id="圖層_1" xmlns="http://www.w3.org/2000/svg" xmlns:xlink="http://www.w3.org/1999/xlink" x="0px" y="0px"
	 viewBox="0 0 84 84" style="enable-background:new 0 0 84 84;" xml:space="preserve">
<style type="text/css">
	.st0{fill:#FFFFFF;}
</style>
<g id="layer101">
	<path class="st0" d="M33.2,59.4c-4.2-8.9-8-17.1-8.3-18.2c-0.6-1.9-0.1-2,17.2-2s17.7,0.1,17.2,2C57.7,45.9,42.9,75.6,42,75.6
		C41.4,75.6,37.5,68.3,33.2,59.4z"/>
	<path class="st0" d="M19.8,53.3C2.5,32.4,2.5,32.4,3.2,31.7c0.3-0.3,4.4,1.1,9.2,3.1l8.6,3.6l7.1,14.9c3.9,8.1,7.1,15.1,7.1,15.6
		C35.1,71.1,32.3,68.2,19.8,53.3z"/>
	<path class="st0" d="M48.9,68.8c0-0.6,3.2-7.7,7.3-15.6l7.3-14.5l8.4-3.7c4.7-2.2,8.7-3.5,9.1-3.2c0.6,0.7-0.5,2.1-18.2,23.3
		C51,68.8,48.9,71,48.9,68.8z"/>
	<path class="st0" d="M24,33.2c0.3-1.8,1.2-5,1.8-7.2l1.2-3.9h15h15.1l1.2,3.9c0.6,2.2,1.5,5.4,1.8,7.2l0.8,3.1H42H23.2L24,33.2z"/>
	<path class="st0" d="M9.4,31.1l-8.7-3.9L5.8,22l5-5.1l6.5,2.1c3.6,1.2,6.8,2.2,7,2.4c0.2,0.1-0.4,3.3-1.4,7.2
		c-1.3,5.1-2.1,6.9-3.3,6.8C18.7,35.3,14.1,33.4,9.4,31.1z"/>
	<path class="st0" d="M61.1,28.5c-1-3.8-1.6-7.1-1.4-7.3c0.2-0.2,3.3-1.2,6.9-2.3l6.4-2l5.3,4.7c2.9,2.6,5,5,4.7,5.4
		c-1.1,1-17.6,8.2-19,8.2C63.4,35.3,62,32.2,61.1,28.5z"/>
	<path class="st0" d="M20.5,17.8c-2.9-0.9-5.5-2.1-5.7-2.6c-0.2-0.6,2.1-1.8,4.9-2.6c7.5-2.4,37-2.4,44.5,0c2.8,0.9,5.1,2.1,4.9,2.6
		C69,15.7,66.2,17,63,17.9C55,20.2,28.6,20.3,20.5,17.8z"/>
</g>
</svg>
